X:1
T:Hind Etin
M:4/4
L:1/4
K:C
 C3/4 D/4| E3/2 E/2 c3/2 A/4A/4| G E D C3/4 D/4| E3/2 E/2 c3/2 A/2|\
 G3 C3/4- D/4| E3/2 E/2 c3/2 A/2| G C3/4- D/4 E G| A3/2 E/2 G3/2 E/2|\
 D3 c3/4- d/4| e e ed/2-c/2| A c3/4- E/4 D c3/4 d/4| e3/2 d/2 c E3/4- A/4|\
 G3 C3/4- D/4| E E ED/2-C/2| D D E G| A3/2 E/2 G3/2 E/2| D3||
